X:1
T:Bihar, LM
T:Bihar, LM
T:Lyman Foster Brackett, 1909
T:Public Domain Courtesy of the Cyber Hymnal™
C:Lyman Foster Brackett, 1909
Z:Public Domain
Z:Courtesy of the Cyber Hymnal™
%%score 1 ( 2 3 )
L:1/8
Q:1/4=130
M:3/2
K:Ab
V:1 treble 
V:2 bass 
V:3 bass 
V:1
 [Ec]2 [EA]2 [Ec]2 | [Ge]6 [DB]2 [CA]2 [DB]2 | [Cc]6 [=Ec]2 [Fc]2 [Gc]2 | %3
 [Fc]6 [Fc]2 [GB]2 [A=d]2 | [Ge]6 [Ge]2 [Ae]2 [Be]2 | [Ae]6 [Ac]2 [Ad]2 [Ae]2 | %6
 [Af]6 [Af]2 [Af]2 [A_f]2 | [Ae]6 [EA]2 [Ec]2 [DB]2 | [CA]6 |] %9
V:2
 A,2 [A,C]2 A,2 | [E,B,]6 [E,G,]2 [E,A,]2 [E,G,]2 | [A,,A,]6 [C,B,]2 [=D,B,]2 [=E,B,]2 | %3
 [F,A,]6 [A,,C]2 [B,,E]2 [B,,B,]2 | [E,B,]6 [E,B,]2 [E,C]2 [E,D]2 | [A,C]6 [_G,E]2 [F,D]2 [E,C]2 | %6
 [D,D]6 [D,D]2 [D,D]2 [D,D]2 | [E,C]6 [E,C]2 [E,G,]2 [E,G,]2 | [A,,A,]6 |] %9
V:3
 A,2 A,2 x2 | x12 | x12 | x12 | x12 | x12 | x12 | x12 | x6 |] %9

